X: 3
T: The Dublin Lads
R: single reel
M: 4/4
L: 1/8
K: Gmaj
Q: 180
%|: "G" g3d BG~G2 | "D" ABcA DFAd  | "G" ~g3d Bcde    |1 "D" fdcA "G" GABd  :|2 "D" fdcA "G" ~G3c  ||
|: "G"BGAF "D" DEFE | ~F2df "C" ecdc | "G" BG"D/A"AF "D"Dfeg    |1 "D" fdcA "G" ~G3c  :|2 "D"fdcA "G"GABc  ||
|: "G"dg~g2 dg~g2| "D"dffe fgfe  |1 "G"dg~g2 "D"d^cde | fdcA "G"GABc    :|2 "D"defg ~a3g  | fdcA "G" GABd |]



